images/antimatter.svg

<svg height="250" viewBox="0 0 250 250" width="250" xmlns="http://www.w3.org/2000/svg"><path d="m0 0h250v250h-250z" fill="#f2f2f2"/><g fill-rule="evenodd"><path d="m158.074219 168.984375c11.605469 0 21.015625-9.378906 21.015625-20.949219 0-11.566406-9.410156-20.949218-21.015625-20.949218s-21.015625 9.382812-21.015625 20.949218c0 11.570313 9.410156 20.949219 21.015625 20.949219zm27.996093-20.949219c0 15.414063-12.535156 27.90625-27.996093 27.90625-15.460938 0-27.996094-12.492187-27.996094-27.90625 0-15.410156 12.535156-27.902344 27.996094-27.902344 15.460937 0 27.996093 12.492188 27.996093 27.902344zm0 0"/><path d="m140.839844 162.46875c1.394531 1.707031 1.136718 4.21875-.578125 5.609375-14.535157 11.800781-29.675781 20.039063-43.058594 23.636719-13.195313 3.550781-25.796875 2.824218-33.769531-5.125-8.855469-8.824219-8.800782-23.300782-3.757813-38.199219.707031-2.085937 2.976563-3.207031 5.066407-2.503906 2.09375.703125 3.21875 2.964843 2.511718 5.050781-4.785156 14.140625-3.644531 24.554688 1.835938 30.015625 4.921875 4.90625 13.824218 6.34375 26.03125 3.0625 12.011718-3.226563 26.164062-10.8125 40.089844-22.121094 1.714843-1.390625 4.230468-1.132812 5.628906.574219zm0 0"/><path d="m112.929688 84.410156c-1.34375-1.746094-1.007813-4.25.746093-5.585937 13.949219-10.636719 28.277344-17.960938 40.925781-21 12.496094-3.003907 24.347657-2.007813 31.964844 5.585937 8.855469 8.824219 8.800782 23.300782 3.757813 38.199219-.707031 2.085937-2.976563 3.207031-5.066407 2.503906-2.09375-.703125-3.21875-2.964843-2.511718-5.050781 4.785156-14.140625 3.644531-24.550781-1.832032-30.015625-4.703124-4.683594-13.019531-6.214844-24.4375-3.46875-11.269531 2.707031-24.597656 9.402344-37.941406 19.578125-1.753906 1.335938-4.265625 1.003906-5.605468-.746094zm0 0"/><path d="m126.085938 100.199219c0 15.410156-12.535157 27.90625-27.996094 27.90625-15.460938 0-27.996094-12.496094-27.996094-27.90625 0-15.414063 12.535156-27.90625 27.996094-27.90625 15.460937 0 27.996094 12.492187 27.996094 27.90625zm-30.796876-13.957031h5.597657v11.164062h11.195312v5.578125h-11.195312v11.164063h-5.597657v-11.164063h-11.203124v-5.578125h11.203124zm0 0"/></g><path d="m168.074219 150.433594v-5.582032h-19.996094v5.582032zm0 0"/></svg>

<svg xmlns="http://www.w3.org/2000/svg" xmlns:xlink="http://www.w3.org/1999/xlink" width="250px" height="250px" viewBox="0 0 250 250" version="1.1">
<g id="surface1">
<rect x="0" y="0" width="250" height="250" style="fill:rgb(94.901961%,94.901961%,94.901961%);fill-opacity:1;stroke:none;"/>
<path style=" stroke:none;fill-rule:evenodd;fill:rgb(0%,0%,0%);fill-opacity:1;" d="M 158.074219 168.984375 C 169.679688 168.984375 179.089844 159.605469 179.089844 148.035156 C 179.089844 136.46875 169.679688 127.085938 158.074219 127.085938 C 146.46875 127.085938 137.058594 136.46875 137.058594 148.035156 C 137.058594 159.605469 146.46875 168.984375 158.074219 168.984375 Z M 186.070312 148.035156 C 186.070312 163.449219 173.535156 175.941406 158.074219 175.941406 C 142.613281 175.941406 130.078125 163.449219 130.078125 148.035156 C 130.078125 132.625 142.613281 120.132812 158.074219 120.132812 C 173.535156 120.132812 186.070312 132.625 186.070312 148.035156 Z M 186.070312 148.035156 "/>
<path style=" stroke:none;fill-rule:evenodd;fill:rgb(0%,0%,0%);fill-opacity:1;" d="M 140.839844 162.46875 C 142.234375 164.175781 141.976562 166.6875 140.261719 168.078125 C 125.726562 179.878906 110.585938 188.117188 97.203125 191.714844 C 84.007812 195.265625 71.40625 194.539062 63.433594 186.589844 C 54.578125 177.765625 54.632812 163.289062 59.675781 148.390625 C 60.382812 146.304688 62.652344 145.183594 64.742188 145.886719 C 66.835938 146.589844 67.960938 148.851562 67.253906 150.9375 C 62.46875 165.078125 63.609375 175.492188 69.089844 180.953125 C 74.011719 185.859375 82.914062 187.296875 95.121094 184.015625 C 107.132812 180.789062 121.285156 173.203125 135.210938 161.894531 C 136.925781 160.503906 139.441406 160.761719 140.839844 162.46875 Z M 140.839844 162.46875 "/>
<path style=" stroke:none;fill-rule:evenodd;fill:rgb(0%,0%,0%);fill-opacity:1;" d="M 112.929688 84.410156 C 111.585938 82.664062 111.921875 80.160156 113.675781 78.824219 C 127.625 68.1875 141.953125 60.863281 154.601562 57.824219 C 167.097656 54.820312 178.949219 55.816406 186.566406 63.410156 C 195.421875 72.234375 195.367188 86.710938 190.324219 101.609375 C 189.617188 103.695312 187.347656 104.816406 185.257812 104.113281 C 183.164062 103.410156 182.039062 101.148438 182.746094 99.0625 C 187.53125 84.921875 186.390625 74.511719 180.914062 69.046875 C 176.210938 64.363281 167.894531 62.832031 156.476562 65.578125 C 145.207031 68.285156 131.878906 74.980469 118.535156 85.15625 C 116.78125 86.492188 114.269531 86.160156 112.929688 84.410156 Z M 112.929688 84.410156 "/>
<path style=" stroke:none;fill-rule:evenodd;fill:rgb(0%,0%,0%);fill-opacity:1;" d="M 126.085938 100.199219 C 126.085938 115.609375 113.550781 128.105469 98.089844 128.105469 C 82.628906 128.105469 70.09375 115.609375 70.09375 100.199219 C 70.09375 84.785156 82.628906 72.292969 98.089844 72.292969 C 113.550781 72.292969 126.085938 84.785156 126.085938 100.199219 Z M 95.289062 86.242188 L 100.886719 86.242188 L 100.886719 97.40625 L 112.082031 97.40625 L 112.082031 102.984375 L 100.886719 102.984375 L 100.886719 114.148438 L 95.289062 114.148438 L 95.289062 102.984375 L 84.085938 102.984375 L 84.085938 97.40625 L 95.289062 97.40625 Z M 95.289062 86.242188 "/>
<path style=" stroke:none;fill-rule:nonzero;fill:rgb(0%,0%,0%);fill-opacity:1;" d="M 168.074219 150.433594 L 168.074219 144.851562 L 148.078125 144.851562 L 148.078125 150.433594 Z M 168.074219 150.433594 "/>
</g>
</svg>
